src/frontend/src/assets/icon_arbitrum.svg

<svg width="28" height="28" viewBox="0 0 28 28" fill="none" xmlns="http://www.w3.org/2000/svg">
<g id="My Site Logo 1">
<g id="Group">
<path id="Vector" d="M3.34082 8.89738V19.1022C3.34082 19.7538 3.68903 20.3562 4.253 20.6809L13.0906 25.7844C13.6546 26.1091 14.3489 26.1091 14.9129 25.7844L23.7505 20.6809C24.3145 20.3562 24.6627 19.7538 24.6627 19.1022V8.89738C24.6627 8.24583 24.3145 7.64341 23.7505 7.3187L14.9129 2.21521C14.3489 1.8905 13.6546 1.8905 13.0906 2.21521L4.25086 7.3187C3.68689 7.64341 3.34082 8.24583 3.34082 8.89738Z" fill="#213147"/>
<g id="Group_2">
<g id="Group_3">
<g id="Group_4">
<path id="Vector_2" d="M15.9296 15.979L14.6692 19.4355C14.635 19.5316 14.635 19.6363 14.6692 19.7324L16.8375 25.6797L19.3454 24.2313L16.3355 15.979C16.2671 15.7889 15.9979 15.7889 15.9296 15.979Z" fill="#12AAFF"/>
</g>
<g id="Group_5">
<path id="Vector_3" d="M18.4566 10.1665C18.3882 9.97639 18.119 9.97639 18.0507 10.1665L16.7903 13.623C16.7561 13.7191 16.7561 13.8238 16.7903 13.9199L20.3429 23.6569L22.8508 22.2085L18.4566 10.1665Z" fill="#12AAFF"/>
</g>
</g>
</g>
<path id="Vector_4" d="M14.0006 2.59773C14.0625 2.59773 14.1245 2.61482 14.18 2.64472L23.744 8.16691C23.8551 8.231 23.9234 8.35063 23.9234 8.47667V19.5189C23.9234 19.6471 23.8551 19.7646 23.744 19.8287L14.18 25.3509C14.1266 25.3829 14.0625 25.3979 14.0006 25.3979C13.9386 25.3979 13.8767 25.3808 13.8211 25.3509L4.25715 19.8329C4.14607 19.7689 4.07771 19.6492 4.07771 19.5232V8.4788C4.07771 8.35063 4.14607 8.23314 4.25715 8.16905L13.8211 2.64686C13.8767 2.61482 13.9386 2.59773 14.0006 2.59773ZM14.0006 0.984863C13.6609 0.984863 13.3191 1.07245 13.0136 1.24976L3.45179 6.76981C2.84082 7.12229 2.46484 7.77384 2.46484 8.4788V19.521C2.46484 20.226 2.84082 20.8776 3.45179 21.23L13.0158 26.7522C13.3212 26.9274 13.6609 27.0171 14.0027 27.0171C14.3424 27.0171 14.6842 26.9295 14.9896 26.7522L24.5536 21.23C25.1646 20.8776 25.5405 20.226 25.5405 19.521V8.4788C25.5405 7.77384 25.1646 7.12229 24.5536 6.76981L14.9875 1.24976C14.682 1.07245 14.3402 0.984863 14.0006 0.984863Z" fill="#9DCCED"/>
<path id="Vector_5" d="M7.6748 23.6694L8.55494 21.2598L10.3259 22.7316L8.67029 24.2441L7.6748 23.6694Z" fill="#213147"/>
<g id="Group_6">
<path id="Vector_6" d="M13.195 7.68848H10.7704C10.5888 7.68848 10.4264 7.8017 10.3645 7.9726L5.16699 22.2213L7.67494 23.6697L13.3979 7.97901C13.4513 7.83801 13.3467 7.68848 13.195 7.68848Z" fill="white"/>
<path id="Vector_7" d="M17.4379 7.68848H15.0132C14.8316 7.68848 14.6693 7.8017 14.6073 7.9726L8.67285 24.2422L11.1808 25.6906L17.6408 7.97901C17.6921 7.83801 17.5874 7.68848 17.4379 7.68848Z" fill="white"/>
</g>
</g>
</g>
</svg>

<svg width="28" height="28" viewBox="0 0 28 28" fill="none" xmlns="http://www.w3.org/2000/svg"><path d="M3.34 8.897v10.205c0 .652.349 1.254.913 1.579l8.838 5.103a1.826 1.826 0 0 0 1.822 0l8.837-5.103c.564-.325.913-.927.913-1.579V8.897c0-.651-.349-1.254-.913-1.578l-8.837-5.104a1.826 1.826 0 0 0-1.822 0L4.25 7.32a1.82 1.82 0 0 0-.91 1.578z" fill="#213147"/><path d="m15.93 15.979-1.26 3.457a.442.442 0 0 0 0 .296l2.167 5.948 2.508-1.449-3.01-8.252a.216.216 0 0 0-.405 0zm2.527-5.813a.216.216 0 0 0-.406 0l-1.26 3.457a.442.442 0 0 0 0 .297l3.552 9.737 2.508-1.448-4.394-12.043z" fill="#12AAFF"/><path d="M14 2.598a.38.38 0 0 1 .18.047l9.564 5.522a.36.36 0 0 1 .18.31v11.042a.357.357 0 0 1-.18.31L14.18 25.35a.352.352 0 0 1-.18.047.381.381 0 0 1-.179-.047l-9.564-5.518a.36.36 0 0 1-.18-.31V8.48a.36.36 0 0 1 .18-.31l9.564-5.522a.36.36 0 0 1 .18-.05zm0-1.613c-.34 0-.68.087-.986.265L3.452 6.77a1.973 1.973 0 0 0-.987 1.709V19.52c0 .705.376 1.357.987 1.709l9.564 5.522a1.966 1.966 0 0 0 1.974 0l9.564-5.522a1.973 1.973 0 0 0 .987-1.709V8.479c0-.705-.376-1.357-.987-1.71l-9.566-5.52A1.966 1.966 0 0 0 14 .986z" fill="#9DCCED"/><path d="m7.675 23.67.88-2.41 1.77 1.472-1.655 1.512-.995-.575z" fill="#213147"/><path d="M13.195 7.688H10.77a.431.431 0 0 0-.405.285L5.166 22.22l2.508 1.449 5.723-15.691a.215.215 0 0 0-.203-.29zm4.243 0h-2.425a.431.431 0 0 0-.406.285l-5.934 16.27 2.508 1.448 6.46-17.712a.217.217 0 0 0-.203-.29z" fill="#fff"/></svg>
